X: 1
T: Michel Ferry's
M: 4/4
L: 1/8
R: reel
K: EMin
|: E3G BEGB | EGBG A2 FD | B3E G/B/z E/ | BEGA (3Bcd AF |
E3G BEGB | EGBE GAB^c | d2 AF DFAf |1 gfed edBG :|2gfed edBd ||
e2 ge a2 ge | e2 ge agfd | e2 ge agfg | effe fedB |
|1 e2 ge a2 ge | e2 ge agfa | gb b2 fa a2 | fggf gfed :|
|2 Bege Bege | cege cege | dfaf dfaf | gfed edBG ||
